!!!!SEGMENT: pl-cz--ii-119_kasprzykowski-ignacy--marsz.krn
!!!cenid: 18xx:855
!!!COM: Kasprzykowski, Ignacy
!!!COM-rismID: pe30098316
!!!CDT: -1752/02/17
!!!CNT:
!!!OTL: Marsz
!!!PDT: 1824
!!!AGN: Secular; March
!!!SMS-siglum: PL-CZ
!!!SMS-shelfmark: II-119
!!!SMS-shelfwork: W
!!!SMS-variant:
!!!SMS-altvar:
!!!NIFC-rismSourceID: 300000577
!!!NIFC-rismChildID: 300000577
!!!NIFC-islandoraID: pl-cz:3267
!!!URL-pdf-islandora: https://repozytorium.nifc.pl/islandora/object/pl-cz%3A3267/datastream/PDF/view
!!!URL-scan: https://polish.musicsources.pl/pl/lokalizacje/galeria/rekopisy/694 @EN{Scan on Polish Music Sources Website} @PL{Skany w portalu Dziedzictwo Muzyki Polskiej w otwartym dostępie}
!!!ONB-nifc:
!!!AIN: 2 clars 3 cor 2 fagot 1 tromp
!!!key: E-
**kern	**kern	**dynam	**kern	**dynam	**kern	**dynam	**kern	**dynam	**kern	**dynam	**kern	**dynam	**kern	**dynam
*group2	*group2	*	*group2	*	*group2	*	*group1	*	*group1	*	*group1	*	*group1	*
*part8	*part7	*part7	*part6	*part6	*part5	*part5	*part4	*part4	*part3	*part3	*part2	*part2	*part1	*part1
*staff8	*staff7	*	*staff6	*	*staff5	*	*staff4	*	*staff3	*	*staff2	*	*staff1	*
*I"Tromba Principalo	*I"Cornu 3.tio in Dis	*	*I"Cornu Secundo. inDis.	*	*I"Cornu Primo in Dis	*	*I"Fagotto Secundo.	*	*I"Fagotto Primo.	*	*I"Clarinetto Secundo.	*	*I"Clarinetto Primo.	*
*I'tr	*I'cor 3 in E|b	*	*I'cor 2 in E|b	*	*I'cor 1 in E|b	*	*I'fg 2	*	*I'fg 1	*	*I'cl 2	*	*I'cl 1	*
*Itromp	*Icor	*	*Icor	*	*Icor	*	*Ifagot	*	*Ifagot	*	*Iclars	*	*Iclars	*
*ICbras	*ICbras	*	*ICbras	*	*ICbras	*	*ICww	*	*ICww	*	*ICww	*	*ICww	*
*>[A,A,B,B1,B,B2,C,C,D,D,C,C,D,D]	*>[A,A,B,B1,B,B2,C,C,D,D,C,C,D,D]	*>[A,A,B,B1,B,B2,C,C,D,D,C,C,D,D]	*>[A,A,B,B1,B,B2,C,C,D,D,C,C,D,D]	*>[A,A,B,B1,B,B2,C,C,D,D,C,C,D,D]	*>[A,A,B,B1,B,B2,C,C,D,D,C,C,D,D]	*>[A,A,B,B1,B,B2,C,C,D,D,C,C,D,D]	*>[A,A,B,B1,B,B2,C,C,D,D,C,C,D,D]	*>[A,A,B,B1,B,B2,C,C,D,D,C,C,D,D]	*>[A,A,B,B1,B,B2,C,C,D,D,C,C,D,D]	*>[A,A,B,B1,B,B2,C,C,D,D,C,C,D,D]	*>[A,A,B,B1,B,B2,C,C,D,D,C,C,D,D]	*>[A,A,B,B1,B,B2,C,C,D,D,C,C,D,D]	*>[A,A,B,B1,B,B2,C,C,D,D,C,C,D,D]	*>[A,A,B,B1,B,B2,C,C,D,D,C,C,D,D]
*>A	*>A	*>A	*>A	*>A	*>A	*>A	*>A	*>A	*>A	*>A	*>A	*>A	*>A	*>A
*clefG2	*clefG2	*	*clefG2	*	*clefG2	*	*clefF4	*	*clefF4	*	*clefG2	*	*clefG2	*
*	*ITrd5c9	*	*ITrd5c9	*	*ITrd5c9	*	*	*	*	*	*ITrd1c2	*	*ITrd1c2	*
*k[b-e-a-]	*k[b-e-a-]	*	*k[b-e-a-]	*	*k[b-e-a-]	*	*k[a-e-b-]	*	*k[e-b-a-]	*	*k[b-e-a-]	*	*k[b-e-a-]	*
*	*	*	*	*	*	*	*E-:	*	*E-:	*	*	*	*	*
*M2/2	*M2/2	*	*M2/2	*	*M2/2	*	*M2/2	*	*M2/2	*	*M2/2	*	*M2/2	*
*met(c|)	*met(c|)	*	*met(c|)	*	*met(c|)	*	*met(c|)	*	*met(c|)	*	*met(c|)	*	*met(c|)	*
!	!	!	!	!	!	!	!LO:TX:t=P:problem=bemole A- E- BB-	!	!	!	!	!	!	!
!	!LO:TX:t=P:problem=partia in Es	!	!LO:TX:t=P:problem=partia in Es	!	!LO:TX:t=P:problem=partia in Es	!	!	!	!	!	!	!	!	!
4ryy	4r	.	4r	.	4r	.	4r	.	4r	.	4r	.	4r	.
=1	=1	=1	=1	=1	=1	=1	=1	=1	=1	=1	=1	=1	=1	=1
!	!LO:TX:a:t=4.	!	!LO:TX:a:t=4.	!	!LO:TX:a:t=4.	!	!LO:TX:a:t=4.	!	!LO:TX:a:t=4.	!	!LO:TX:a:t=4.	!	!LO:TX:a:t=3.	!
1ryy	00r	.	00r	.	00r	.	00r	.	00r	.	00r	.	0r	.
=2	=2	=2	=2	=2	=2	=2	=2	=2	=2	=2	=2	=2	=2	=2
1ryy	.	.	.	.	.	.	.	.	.	.	.	.	.	.
=3	=3	=3	=3	=3	=3	=3	=3	=3	=3	=3	=3	=3	=3	=3
1ryy	.	.	.	.	.	.	.	.	.	.	.	.	1r	.
=4	=4	=4	=4	=4	=4	=4	=4	=4	=4	=4	=4	=4	=4	=4
1ryy	.	.	.	.	.	.	.	.	.	.	.	.	2r	.
.	.	.	.	.	.	.	.	.	.	.	.	.	4r	f
.	.	.	.	.	.	.	.	.	.	.	.	.	8.b-sSSS\L	.
.	.	.	.	.	.	.	.	.	.	.	.	.	16b-\Jk	.
=5	=5	=5	=5	=5	=5	=5	=5	=5	=5	=5	=5	=5	=5	=5
*	*	*	*	*	*2\right	*	*2\right	*	*2\right	*	*2\right	*	*2\right	*
!	!	!LO:DY:rj:t=f	!	!	!	!	!	!LO:DY:rj	!	!LO:DY:rj	!	!LO:DY:rj	!	!
1ryy	2E-/	f	(2G/	.	2e-\	.	(2G\	f	(2B-\	f	2b-\	f	2ee-\	.
.	4BB-/	.	4B-/)	.	4f\	.	4F\)	.	4A-\)	.	4b-\	.	8.dd\L	.
.	.	.	.	.	.	.	.	.	.	.	.	.	16cc\K	.
.	4r	.	4r	.	4r	.	4r	.	4r	.	4r	.	8.dd\	.
.	.	.	.	.	.	.	.	.	.	.	.	.	16b-\Jk	.
=6	=6	=6	=6	=6	=6	=6	=6	=6	=6	=6	=6	=6	=6	=6
1ryy	2BB-/	.	2B-/	.	2f\	.	2F\	.	2A-\	.	2ff\	.	2aa-\	.
.	4E-/	.	4G/	.	4e-\	.	4G\	.	4G\	.	4ee-\	.	8.gg\L	.
.	.	.	.	.	.	.	.	.	.	.	.	.	16ff#X\K	.
.	4r	.	4r	.	4r	.	4r	.	4r	.	4r	.	8.gg\	.
.	.	.	.	.	.	.	.	.	.	.	.	.	16ee-\Jk	.
=7	=7	=7	=7	=7	=7	=7	=7	=7	=7	=7	=7	=7	=7	=7
!	!	!	!LO:TX:a:t=1	!	!	!	!	!	!	!	!	!	!	!
1ryy	2r	.	1r	.	4r	.	4r	.	4r	.	4cc\	.	4cc\	.
.	.	.	.	.	4f\	.	4A-\	.	4c\	.	8.a-\L	.	8.ff\L	.
.	.	.	.	.	.	.	.	.	.	.	16a-\Jk	.	16ff\Jk	.
.	4E-/	.	.	.	4e-\	.	4G\	.	4B-\	.	4g/	.	4ee-\	.
.	4BB-/	.	.	.	4d\	.	4F\	.	4d\	.	4f/	.	4dd\	.
=8	=8	=8	=8	=8	=8	=8	=8	=8	=8	=8	=8	=8	=8	=8
1ryy	4E-/	.	4G/	.	4e-\	.	4E-\	.	4e-\	.	4e-/	.	4ee-\	.
.	8.E-/L	.	8.E-/L	.	8.E-/L	.	8.EE-/L	.	8.E-\L	.	8.E-/L	.	8.E-/L	.
.	16E-/Jk	.	16E-/Jk	.	16E-/Jk	.	16EE-/Jk	.	16E-\Jk	.	16E-/Jk	.	16E-/Jk	.
.	4E-/	.	4E-/	.	4E-/	.	4EE-/	.	4E-\	.	4E-/	.	4E-/	.
.	4r	.	4r	.	4r	.	4r	.	4r	.	4r	.	8.b-\L	.
.	.	.	.	.	.	.	.	.	.	.	.	.	16b-\Jk	.
!	!LO:LB:g=original	!	!	!	!LO:LB:g=original	!	!LO:LB:g=original	!	!LO:LB:g=original	!	!	!	!LO:LB:g=original	!
=9	=9	=9	=9	=9	=9	=9	=9	=9	=9	=9	=9	=9	=9	=9
!	!	!LO:DY:rj	!	!	!	!	!	!	!	!	!	!	!	!
1ryy	4E-/	p	4e-\	.	4g\	.	4E-\	f	4G\	f	4g/	.	4ee-\	.
.	4r	.	4r	.	4r	.	4G\	p	4B-\	p	4r	.	4r	.
!	!	!	!	!	!	!	!LO:SIC:v:s=4D\	!	!	!	!	!	!	!
.	4BB-/	.	4B-/	.	4f\	.	4E-\	f	4F\	f	4b-\	.	4dd\	.
!	!	!	!	!	!	!	!LO:SIC:v:s=4F\	!	!	!	!	!	!	!
.	4r	.	4r	.	4r	.	4G\	p	4B-\	p	4r	.	4r	.
!	!	!	!LO:LB:g=original	!	!	!	!	!	!	!	!LO:LB:g=original	!	!	!
=10	=10	=10	=10	=10	=10	=10	=10	=10	=10	=10	=10	=10	=10	=10
1ryy	4E-/	.	4e-\	.	4g\	.	4E-\	.	4G\	.	4g\	.	4ee-\	.
.	4r	.	4r	.	4r	.	4G\	.	4B-\	.	4r	.	4r	.
!	!	!	!	!	!	!	!LO:SIC:v:s=4D\	!	!	!	!	!	!	!
.	4BB-/	.	4B-/	.	4f\	.	4E-\	.	4F\	.	4b-\	.	4dd\	.
!	!	!	!	!	!	!	!LO:SIC:v:s=4F\	!	!	!	!	!	!	!
.	4r	.	4r	.	4r	.	4G\	.	4B-\	.	4r	.	4r	.
=11	=11	=11	=11	=11	=11	=11	=11	=11	=11	=11	=11	=11	=11	=11
1ryy	4E-/	.	4E-/	.	4e-\	.	4A-\	.	4c\	.	4a-\	.	4cc\	.
.	4r	.	4r	.	4r	.	4r	.	4r	.	8.aa-\L	.	8.ccc\L	.
.	.	.	.	.	.	.	.	.	.	.	16aa-\Jk	.	16ccc\Jk	.
.	2r	.	2r	.	2r	.	2r	.	2r	.	8.gg\L	.	8.bb-\L	.
.	.	.	.	.	.	.	.	.	.	.	16gg\Jk	.	16bb-\Jk	.
.	.	.	.	.	.	.	.	.	.	.	8.ff#X\L	.	8.aa\L	.
.	.	.	.	.	.	.	.	.	.	.	16ff#\Jk	.	16aa\Jk	.
=12	=12	=12	=12	=12	=12	=12	=12	=12	=12	=12	=12	=12	=12	=12
!	!	!LO:DY:rj:t=f	!	!	!	!	!	!	!LO:TX:a:i:rj:t=Solo	!	!	!	!	!
1ryy	1BB-	f	1B-	.	1b-	.	4G\	.	4B-\	.	1ffn	.	1aa-X	.
.	.	.	.	.	.	.	8.A-\L	.	8.c\L	.	.	.	.	.
.	.	.	.	.	.	.	16A-\Jk	.	16c\Jk	.	.	.	.	.
.	.	.	.	.	.	.	8.G\L	.	8.B-\L	.	.	.	.	.
.	.	.	.	.	.	.	16G\Jk	.	16B-\Jk	.	.	.	.	.
.	.	.	.	.	.	.	8.F\L	.	8.A-\L	.	.	.	.	.
.	.	.	.	.	.	.	16F\Jk	.	16A-\Jk	.	.	.	.	.
=13	=13	=13	=13	=13	=13	=13	=13	=13	=13	=13	=13	=13	=13	=13
1ryy	4E-/	.	4e-\	.	4g\	.	4E-\	.	4G\	.	4ee-\	.	4gg\	.
.	4r	.	4r	.	4r	.	4F\	.	4A-\	.	(8cc\L	.	(8cc\L	.
.	.	.	.	.	.	.	.	.	.	.	8a-\J)	.	8ff\J)	.
.	4E-/	.	2r	.	2r	.	4E-\	.	4G\	.	4g/	.	4ee-\	.
.	4BB-/	.	.	.	.	.	4D\	.	4F\	.	4f/	.	4dd\	.
!	!	!	!	!	!	!	!	!	!LO:LB:g=original	!	!	!	!	!
=14	=14	=14	=14	=14	=14	=14	=14	=14	=14	=14	=14	=14	=14	=14
1ryy	4E-/	.	4e-\	.	4g\	.	4E-\	.	4G\	.	4g/	.	4ee-\	.
.	4r	.	4r	.	4r	.	4r	.	4r	.	4r	.	4r	.
.	4r	.	4r	.	4r	.	4r	.	4r	.	4r	.	4r	.
.	4BB-/	.	4f\	.	4f\	.	4D/	.	4F\	.	(4f/	.	4dd\	.
!	!LO:LB:g=original	!	!	!	!LO:LB:g=original	!	!LO:LB:g=original	!	!	!	!	!	!	!
=15	=15	=15	=15	=15	=15	=15	=15	=15	=15	=15	=15	=15	=15	=15
1ryy	4E-/	.	4e-\	.	4g\	.	4E-\	.	4G\	.	4g/)	.	4ee-\	.
.	4r	.	4r	.	4r	.	4r	.	4r	.	4r	.	4r	.
.	4r	.	4r	.	4r	.	4r	.	4r	.	4r	.	4r	.
.	4BB-/	.	4B-/	.	4f\	.	4D/	.	4F\	.	4f/	.	4dd\	.
!	!	!	!	!	!	!	!	!	!	!	!LO:LB:g=original	!	!LO:LB:g=original	!
=	=	=	=	=	=	=	=	=	=	=	=	=	=	=
2.ryy	4E-/	.	4G/	.	4e-\	.	16E-\LL	.	16E-\LL	.	4g/	.	4ee-\	.
.	.	.	.	.	.	.	16F\	.	16F\	.	.	.	.	.
.	.	.	.	.	.	.	16G\	.	16G\	.	.	.	.	.
.	.	.	.	.	.	.	16A-\JJ	.	16A-\JJ	.	.	.	.	.
.	8.E-/L	.	8.G/L	.	8.e-\L	.	16B-\LL	.	16B-\LL	.	8.g/L	.	8.ee-\L	.
.	.	.	.	.	.	.	16c\	.	16c\	.	.	.	.	.
.	.	.	.	.	.	.	16d\	.	16d\	.	.	.	.	.
.	16E-/Jk	.	16G/Jk	.	16e-\Jk	.	16e-\JJ	.	16e-\JJ	.	16g/Jk	.	16ee-\Jk	.
.	4E-/	.	4G/	.	4e-\	.	4G\	.	4E-\	.	4g/	.	4ee-\	.
!	!	!	!LO:LB:g=original	!	!	!	!	!	!	!	!	!	!	!
=16:|!|:	=16:|!|:	=16:|!|:	=16:|!|:	=16:|!|:	=16:|!|:	=16:|!|:	=16:|!|:	=16:|!|:	=16:|!|:	=16:|!|:	=16:|!|:	=16:|!|:	=16:|!|:	=16:|!|:
*>B	*>B	*>B	*>B	*>B	*>B	*>B	*>B	*>B	*>B	*>B	*>B	*>B	*>B	*>B
!	!	!	!	!	!	!LO:DY:rj	!	!	!	!	!	!	!	!
4ryy	4r	.	4r	.	4r	p	4r	.	4r	.	4r	.	8b-\L	.
.	.	.	.	.	.	.	.	.	.	.	.	.	8dd\J	p
=17	=17	=17	=17	=17	=17	=17	=17	=17	=17	=17	=17	=17	=17	=17
!	!LO:TX:a:t=1.	!	!LO:TX:a:t=1	!	!	!	!	!	!	!LO:DY:rj	!	!LO:DY:rj	!	!
1ryy	1r	.	1r	.	4r	.	4r	p	4r	p	4r	p	4.ff\	.
.	.	.	.	.	4e-\|	.	4C/	.	4F'\	.	4a\	.	.	.
.	.	.	.	.	.	.	.	.	.	.	.	.	8gg\	.
.	.	.	.	.	4e-\|	.	4C/	.	4F'\	.	4a\	.	8.ff\L	.
.	.	.	.	.	.	.	.	.	.	.	.	.	16ee-\Jk	.
.	.	.	.	.	4e-\|	.	4C/	.	4F'\	.	4a\	.	8.cc\L	.
.	.	.	.	.	.	.	.	.	.	.	.	.	16dd\Jk	.
!	!	!	!	!	!	!	!	!	!LO:LB:g=original	!	!	!	!	!
=18	=18	=18	=18	=18	=18	=18	=18	=18	=18	=18	=18	=18	=18	=18
1ryy	4r	.	4r	f	4dn/	.	4D/	.	4F\	.	4b-\	.	4b-\	.
.	8.BB-/L	.	8.BB-/L	.	8.B-/L	.	8.BB-/L	f	8.BB-/L	.	8.B-/L	.	4r	.
.	16BB-/Jk	.	16BB-/Jk	.	16B-/Jk	.	16BB-/Jk	.	16BB-/Jk	.	16B-/Jk	.	.	.
.	4BB-/	.	4BB-/	.	4B-/	.	4BB-/	.	4BB-/	.	4B-/	.	8.r	.
.	.	.	.	.	.	.	.	.	.	.	.	.	16dd\KL	.
.	4r	.	4r	.	4r	.	4r	.	4r	.	4r	.	8.ee-\	.
.	.	.	.	.	.	.	.	.	.	.	.	.	16eeX\Jk	.
!	!	!	!	!	!LO:LB:g=original	!	!LO:LB:g=original	!	!	!	!	!	!	!
=19	=19	=19	=19	=19	=19	=19	=19	=19	=19	=19	=19	=19	=19	=19
!	!LO:TX:a:t=1	!	!LO:TX:a:t=1	!	!	!	!	!	!	!	!	!	!	!
1ryy	1r	.	1r	.	4r	.	4r	p	4r	.	4r	.	4.ff\	.
!	!	!	!	!	!	!	!	!	!	!	!LO:SIC:v:s=4an\	!	!	!
.	.	.	.	.	4e-\|	.	4C/	.	4F\	.	4a-\	.	.	.
.	.	.	.	.	.	.	.	.	.	.	.	.	8gg\	.
!	!	!	!	!	!	!	!	!	!	!	!LO:SIC:v:s=4a\	!	!	!
.	.	.	.	.	4e-\|	.	4C/	.	4F\	.	4a-\	.	8.ff\L	.
.	.	.	.	.	.	.	.	.	.	.	.	.	16ee-\Jk	.
!	!	!	!	!	!	!	!	!	!	!	!LO:SIC:v:s=4a\	!	!	!
.	.	.	.	.	4e-\|	.	4C/	.	4F\	.	4a-\	.	8.cc\L	.
.	.	.	.	.	.	.	.	.	.	.	.	.	16dd\Jk	.
!	!	!	!	!	!	!	!	!	!	!	!	!	!LO:LB:g=original	!
=20	=20	=20	=20	=20	=20	=20	=20	=20	=20	=20	=20	=20	=20	=20
1ryy	4r	.	4r	.	4d/	.	4D/	.	4F\	.	4b-\	.	4b-\	.
!	!	!	!	!	!	!	!	!LO:DY:rj	!	!	!	!	!	!
.	8.BB-/L	.	8.BB-/L	.	8.B-/L	.	8.BB-/L	f	8.BB-/L	.	8.B-/L	.	4r	.
.	16BB-/Jk	.	16BB-/Jk	.	16B-/Jk	.	16BB-/Jk	.	16BB-/Jk	.	16B-/Jk	.	.	.
.	4BB-/	.	4BB-/	.	4B-/	.	4BB-/	.	4BB-/	.	4B-/	.	8.r	.
.	.	.	.	.	.	.	.	.	.	.	.	.	16b-\KL	.
.	4r	.	4r	.	4r	.	4r	.	4r	.	4r	.	8.dd\	.
.	.	.	.	.	.	.	.	.	.	.	.	.	16ff\Jk	.
!	!LO:LB:g=original	!	!	!	!	!	!	!	!	!	!LO:LB:g=original	!	!	!
=21	=21	=21	=21	=21	=21	=21	=21	=21	=21	=21	=21	=21	=21	=21
!	!	!	!	!	!	!	!	!	!	!LO:DY:rj	!	!LO:DY:rj:t=sf	!	!
1ryy	2BB-/	.	2B-/	.	2dn/	.	2F\	.	2d\	f	2ff\	sf	4.aa-\	>
.	.	.	.	.	.	.	.	.	.	.	.	.	8gg\	]
.	4BB-/	.	4B-/	.	4d/	.	4F\	.	4d\	.	4ff\	.	8.ff\L	.
.	.	.	.	.	.	.	.	.	.	.	.	.	16gg\Jk	.
.	4BB-/	.	4B-/	.	4d/	.	4F\	.	4d\	.	4ff\	.	8.aa-\L	.
.	.	.	.	.	.	.	.	.	.	.	.	.	16bb-\Jk	.
!	!	!	!	!	!	!	!	!	!LO:LB:g=original	!	!	!	!	!
=22	=22	=22	=22	=22	=22	=22	=22	=22	=22	=22	=22	=22	=22	=22
1ryy	4E-^/	.	4e-\	.	4e-^\	.	4G\	.	4e-\	.	4ee-\	.	4gg^\	.
.	4E-/	.	4E-/	.	4E-/	.	4E-\	.	4E-\	.	4g/	.	4ee-^\	.
.	2r	.	2r	.	2r	.	2r	.	2r	.	2r	.	8.r	.
.	.	.	.	.	.	.	.	.	.	.	.	.	16ee-\KL	.
.	.	.	.	.	.	.	.	.	.	.	.	.	8.ff\	.
.	.	.	.	.	.	.	.	.	.	.	.	.	16gg\Jk	.
=23	=23	=23	=23	=23	=23	=23	=23	=23	=23	=23	=23	=23	=23	=23
!	!LO:TX:a:t=1	!	!LO:TX:a:t=1	!	!LO:TX:a:t=1.	!	!	!	!	!	!	!	!	!
1ryy	1r	.	1r	.	1r	.	4r	.	4r	.	(4a-\	.	4.cc\	.
.	.	.	.	.	.	.	4AA-/	.	(4A-\	.	4cc\	.	.	.
.	.	.	.	.	.	.	.	.	.	.	.	.	8ff\	.
.	.	.	.	.	.	.	4BB-/	.	4G\	.	4b-\	.	8.ee-\L	.
.	.	.	.	.	.	.	.	.	.	.	.	.	16dd\Jk	.
.	.	.	.	.	.	.	4D/	.	4F\)	.	4a-\)	.	8.cc\L	.
.	.	.	.	.	.	.	.	.	.	.	.	.	16dd\Jk	.
!	!	!	!LO:LB:g=original	!	!	!	!	!	!	!	!	!	!LO:LB:g=original	!
=24	=24	=24	=24	=24	=24	=24	=24	=24	=24	=24	=24	=24	=24	=24
1ryy	4E-/	.	4G/	.	4g\	.	4E-\	.	4E-\	.	4g/	.	8.ee-\L	.
.	.	.	.	.	.	.	.	.	.	.	.	.	16ff\K	.
.	4r	.	4r	.	4r	.	4r	.	4r	.	4r	.	8.gg\	.
.	.	.	.	.	.	.	.	.	.	.	.	.	16aa-\Jk	.
.	4G/	.	4G/	.	4g\	.	4E-\	.	4G\	.	4ee-\	.	8.bb-\L	.
.	.	.	.	.	.	.	.	.	.	.	.	.	16ccc\Jk	.
.	4r	.	4r	.	4r	.	4r	.	4r	.	4r	.	8.bb-\L	.
.	.	.	.	.	.	.	.	.	.	.	.	.	16aa-\Jk	.
!	!	!	!	!	!LO:LB:g=original	!	!LO:LB:g=original	!	!	!	!	!	!	!
=25	=25	=25	=25	=25	=25	=25	=25	=25	=25	=25	=25	=25	=25	=25
1ryy	4B-/	.	4B-/	.	4f\	.	4F\	.	4F\	.	4ee-\	.	(8.aa-\L	.
.	.	.	.	.	.	.	.	.	.	.	.	.	16gg\K)	.
.	4r	.	4r	.	4r	.	4r	.	4r	.	4r	.	8.ff\	.
.	.	.	.	.	.	.	.	.	.	.	.	.	16ee-\Jk	.
.	4BB-/	.	4B-/	.	4f\	.	4F\	.	4F\	.	4dd\	.	4ee-SSs\	.
.	4BB-/	.	4B-/	.	4f\	.	4F\	.	4F\	.	4dd\	.	8gg\L	.
.	.	.	.	.	.	.	.	.	.	.	.	.	8ff\J	.
=26	=26	=26	=26	=26	=26	=26	=26	=26	=26	=26	=26	=26	=26	=26
*>B1	*>B1	*>B1	*>B1	*>B1	*>B1	*>B1	*>B1	*>B1	*>B1	*>B1	*>B1	*>B1	*>B1	*>B1
!	!LO:TX:t=P:problem=brak rozpisania na volty	!	!LO:TX:t=P:problem=brak rozpisania na volty	!	!LO:TX:t=P:problem=brak rozpisania na volty	!	!LO:TX:t=P:problem=brak rozpisania na volty	!	!LO:TX:t=P:problem=brak rozpisania na volty	!	!LO:TX:t=P:problem=brak rozpisania na volty	!	!LO:TX:a:t=1. mahl.	!
2.ryy	4E-/	.	4G/	.	4e-\	.	16E-\LL	.	16E-\LL	.	4ee-\	.	4ee-\	.
.	.	.	.	.	.	.	16F\	.	16F\	.	.	.	.	.
.	.	.	.	.	.	.	16G\	.	16G\	.	.	.	.	.
.	.	.	.	.	.	.	16A-\JJ	.	16A-\JJ	.	.	.	.	.
.	8.E-/L	.	8.E-/L	.	8.E-/L	.	16B-\LL	.	16B-\LL	.	8.E-/L	.	8.E-/L	.
.	.	.	.	.	.	.	16c\	.	16c\	.	.	.	.	.
.	.	.	.	.	.	.	16d\	.	16d\	.	.	.	.	.
.	16E-/Jk	.	16E-/Jk	.	16E-/Jk	.	16e-\JJ	.	16e-\JJ	.	16E-/Jk	.	16E-/Jk	.
!	!	!	!LO:TX:b:i:t=vertate&colon; Trio	!	!LO:TX:b:i:t=Segue&colon; Trio.	!	!LO:TX:b:i:t=Segue&colon; Trio.	!	!LO:TX:b:i:t=vertate&colon; Trio	!	!LO:TX:b:t=segue&colon; Trio.	!	!	!
.	4E-/	.	4E-/	.	4E-/	.	4E-\	.	4E-\	.	4E-/	.	4E-/	.
=:|!	=:|!	=:|!	=:|!	=:|!	=:|!	=:|!	=:|!	=:|!	=:|!	=:|!	=:|!	=:|!	=:|!	=:|!
*>B2	*>B2	*>B2	*>B2	*>B2	*>B2	*>B2	*>B2	*>B2	*>B2	*>B2	*>B2	*>B2	*>B2	*>B2
!	!	!	!	!	!	!	!	!	!	!	!	!	!LO:TX:a:t=2. mahl.	!
2ryy	2ryy	.	2ryy	.	2ryy	.	2ryy	.	2ryy	.	2ryy	.	4ee-\	.
.	.	.	.	.	.	.	.	.	.	.	.	.	8.E-/L	.
.	.	.	.	.	.	.	.	.	.	.	.	.	16E-/Jk	.
!	!	!	!	!	!	!	!	!	!	!	!	!	!LO:TX:b:i:t=vertate&colon; Trio&colon;	!
!	!	!	!	!	!	!	!	!	!	!	!	!	!LO:N:vis=4	!
8ryy	8ryy	.	8ryy	.	8ryy	.	8ryy	.	8ryy	.	8ryy	.	8E-/	.
!	!LO:LB:g=original	!	!LO:PB:g=original	!	!LO:PB:g=original	!	!LO:PB:g=original	!	!LO:PB:g=original	!	!LO:PB:g=original	!	!LO:PB:g=original	!
=27||	=27||	=27||	=27||	=27||	=27||	=27||	=27||	=27||	=27||	=27||	=27||	=27||	=27||	=27||
*>C	*>C	*>C	*>C	*>C	*>C	*>C	*>C	*>C	*>C	*>C	*>C	*>C	*>C	*>C
*	*k[b-e-a-d-]	*	*k[b-e-a-d-]	*	*k[b-e-a-d-]	*	*k[e-b-a-d-]	*	*k[e-b-a-d-]	*	*k[b-e-a-d-]	*	*k[b-e-a-d-]	*
*	*met(c|)	*	*met(c|)	*	*met(c|)	*	*met(c|)	*	*met(c|)	*	*met(c|)	*	*met(c|)	*
!	!LO:TX:a:i:t=Trio	!	!LO:TX:a:i:t=Trio	!	!LO:TX:a:i:rj:t=Trio	!	!LO:TX:a:i:rj:t=Trio	!	!LO:TX:a:i:t=Trio	!	!LO:TX:a:i:rj:t=Trio	!	!LO:TX:a:i:rj:t=Trio	!
4.ryy	8r	.	8r	.	8r	.	8r	.	8r	.	8r	.	16r	.
.	.	.	.	.	.	.	.	.	.	.	.	.	16ee-\KL	.
.	4r	.	4r	.	4r	.	4r	.	4r	.	4r	.	8.aa-\	.
.	.	.	.	.	.	.	.	.	.	.	.	.	16bb-\Jk	.
=28	=28	=28	=28	=28	=28	=28	=28	=28	=28	=28	=28	=28	=28	=28
!	!LO:TX:a:t=8	!	!LO:TX:a:t=8	!	!	!LO:DY:rj:t=p	!	!LO:DY:rj:t=p	!	!LO:DY:rj	!	!LO:DY:t=p&colon;	!	!
1ryy	00r	.	00r	.	4r	p	4AA-/	p	4r	p	4r	p	[2ccc\	.
.	.	.	.	.	4e-\	.	4r	.	4A-'\	.	4cc'\	.	.	.
.	.	.	.	.	4e-\	.	2r	.	4A-'\	.	4cc'\	.	8.ccc\L]	.
.	.	.	.	.	.	.	.	.	.	.	.	.	16ddd-\K	.
.	.	.	.	.	4e-\	.	.	.	4A-'\	.	4cc'\	.	8.ccc\	.
.	.	.	.	.	.	.	.	.	.	.	.	.	16bb-\Jk	.
=29	=29	=29	=29	=29	=29	=29	=29	=29	=29	=29	=29	=29	=29	=29
1ryy	.	.	.	.	4r	.	4AA-/	.	4r	.	4r	.	8.bb-\L	.
.	.	.	.	.	.	.	.	.	.	.	.	.	16aa-\Jk	.
.	.	.	.	.	4e-\	.	4r	.	4A-'\	.	4cc'\	.	4.aa-\	.
.	.	.	.	.	4e-\	.	2r	.	4A-'\	.	4cc'\	.	.	.
.	.	.	.	.	.	.	.	.	.	.	.	.	(16bb-\LL	.
.	.	.	.	.	.	.	.	.	.	.	.	.	16aa-\JJ)	.
.	.	.	.	.	4e-\	.	.	.	4A-'\	.	4cc'\	.	8gg\L	.
.	.	.	.	.	.	.	.	.	.	.	.	.	8aa-\J	.
=30	=30	=30	=30	=30	=30	=30	=30	=30	=30	=30	=30	=30	=30	=30
1ryy	.	.	.	.	4r	.	4EE-/	.	4r	.	4r	.	8aa\L	.
.	.	.	.	.	.	.	.	.	.	.	.	.	8bb-\J	.
.	.	.	.	.	4e-\	.	4r	.	4G\	.	4b-\	.	4.bb-\	.
.	.	.	.	.	4e-\	.	2r	.	4G\	.	4b-\	.	.	.
.	.	.	.	.	.	.	.	.	.	.	.	.	16ccc\LL	.
.	.	.	.	.	.	.	.	.	.	.	.	.	(16bb-\JJ	.
.	.	.	.	.	4e-\	.	.	.	4G\	.	4b-\	.	8aa\L	.
.	.	.	.	.	.	.	.	.	.	.	.	.	8bb-\J)	.
=31	=31	=31	=31	=31	=31	=31	=31	=31	=31	=31	=31	=31	=31	=31
!	!	!	!	!	!	!LO:DY:rj	!	!LO:DY:rj:t=f&colon;	!	!	!	!	!	!
1ryy	.	.	.	.	4r	sf	4r	f	4r	.	4r	.	(2bbX\	.
!	!	!	!	!	!	!	!	!	!	!LO:DY:rj	!	!	!	!
.	.	.	.	.	[4e-\	.	(>4EE-/	.	(4B-\	sf	(4dd-X\	<	.	.
!	!	!	!	!	!	!	!LO:SIC:v:s=8A-/)	!	!	!	!	!	!LO:N:vis=4	!
.	.	.	.	.	8e-\]	.	8GG/)	.	8A-\)	.	8cc'\)	[	8ccc\)	.
.	.	.	.	.	8r	.	8r	.	8r	.	8r	.	16r	.
.	.	.	.	.	.	.	.	.	.	.	.	.	16ee-\KL	.
.	.	.	.	.	4r	.	4r	.	4r	.	4r	.	8.aa-X\	.
.	.	.	.	.	.	.	.	.	.	.	.	.	16bb-\Jk	.
!	!	!	!	!	!LO:LB:g=original	!	!	!	!LO:LB:g=original	!	!	!	!LO:LB:g=original	!
=32	=32	=32	=32	=32	=32	=32	=32	=32	=32	=32	=32	=32	=32	=32
!	!LO:TX:t=P:problem=pauza czterotaktowa, ale nie da się zapisać, bo t.35 jest krótszy	!	!LO:TX:t=P:problem=pauza czterotaktowa, ale nie da się zapisać, bo t.35 jest krótszy	!	!	!	!	!	!	!	!	!	!	!
1ryy	1r	.	1r	.	4r	.	4AA-/	.	4r	p	4r	.	[2ccc\	.
.	.	.	.	.	4e-\	.	4r	.	4A-\	.	4cc\|	p	.	.
.	.	.	.	.	4e-\	.	2r	.	4A-\	.	4cc\|	.	8.ccc\L]	.
.	.	.	.	.	.	.	.	.	.	.	.	.	16ddd-\K	.
.	.	.	.	.	4e-\	.	.	.	4A-\	.	4cc\|	.	8.ccc\	.
.	.	.	.	.	.	.	.	.	.	.	.	.	16bb-\Jk	.
!	!	!	!	!	!	!	!LO:LB:g=original	!	!	!	!LO:LB:g=original	!	!	!
=33	=33	=33	=33	=33	=33	=33	=33	=33	=33	=33	=33	=33	=33	=33
1ryy	1r	.	1r	.	4r	.	4r	.	4r	.	4r	.	(8.bb-\L	.
!	!	!	!	!	!	!	!	!	!	!	!	!	!LO:TX:a:t=dolce.	!
.	.	.	.	.	.	.	.	.	.	.	.	.	16aa-\Jk)	.
.	.	.	.	.	4e-\	.	4AA-/	.	4A-\	.	4cc\	.	4aa-\	.
!	!	!	!	!	!	!	!	!	!	!	!LO:N:vis=4	!	!	!
.	.	.	.	.	4e-\	.	4AA-/	.	4A-\	.	8cc\	.	8.r	.
!	!	!	!	!	!	!	!	!	!	!	!LO:N:vis=8.	!	!	!
.	.	.	.	.	.	.	.	.	.	.	16r	.	.	.
.	.	.	.	.	.	.	.	.	.	.	(16cc\KL	<	(16aa-\KL	<
.	.	.	.	.	4r	.	4r	.	4r	.	8.dd-\	.	8.gg\	.
.	.	.	.	.	.	.	.	.	.	.	16ee-\Jk)	[	16gg-X\Jk)	[
=34	=34	=34	=34	=34	=34	=34	=34	=34	=34	=34	=34	=34	=34	=34
1ryy	1r	.	1r	.	4f\	.	4D-X\	.	4B-\	.	4dd-X\	.	4ff\	.
.	.	.	.	.	4r	.	4r	.	4r	.	4r	.	(16bb-\LL	.
.	.	.	.	.	.	.	.	.	.	.	.	.	16ccc\	.
.	.	.	.	.	.	.	.	.	.	.	.	.	16ddd-\	.
.	.	.	.	.	.	.	.	.	.	.	.	.	16bb-\JJ	.
.	.	.	.	.	4e-\	.	4E-\	.	(4A-\	.	(4cc\	.	4aa-\)	.
.	.	.	.	.	4e-\	.	4EE-/	.	4G\)	<[	4b-\)	.	4gg\	.
=	=	=	=	=	=	=	=	=	=	=	=	=	=	=
!	!	!	!	!	!	!	!	!	!	!	!	!LO:DY:rj	!	!
2ryy	2r	.	2r	.	2g\	.	(2EE-/	sf	(2B-\	sf	(2dd-\	sf >	(2bb-\	.
8ryy	8r	.	8r	.	8e-\	.	8AA-/)	.	8A-\)	.	8cc\)	]	8aa-\)	.
=35:|!|:	=35:|!|:	=35:|!|:	=35:|!|:	=35:|!|:	=35:|!|:	=35:|!|:	=35:|!|:	=35:|!|:	=35:|!|:	=35:|!|:	=35:|!|:	=35:|!|:	=35:|!|:	=35:|!|:
*>D	*>D	*>D	*>D	*>D	*>D	*>D	*>D	*>D	*>D	*>D	*>D	*>D	*>D	*>D
4.ryy	8r	.	8r	.	8r	.	8r	.	8r	.	8r	.	8r	.
.	4r	.	4r	.	4r	.	4r	.	4r	.	4r	.	(16bb-\LL	.
.	.	.	.	.	.	.	.	.	.	.	.	.	16aa\	.
.	.	.	.	.	.	.	.	.	.	.	.	.	16bb-\	.
.	.	.	.	.	.	.	.	.	.	.	.	.	16gg\JJ)	.
=36	=36	=36	=36	=36	=36	=36	=36	=36	=36	=36	=36	=36	=36	=36
!	!	!	!	!	!	!	!LO:TX:a:t=1.	!	!LO:TX:a:t=1.	!	!LO:TX:a:t=1.	!	!	!
1ryy	4r	.	4r	.	4r	.	1r	.	1r	.	1r	.	4ee-\	.
.	8G/L	.	8.G/L	.	8e-\L	.	.	.	.	.	.	.	4r	.
.	8G/J	.	.	.	8e-\J	.	.	.	.	.	.	.	.	.
.	.	.	16G/Jk	.	.	.	.	.	.	.	.	.	.	.
.	4G/	.	4G/	.	4e-\	.	.	.	.	.	.	.	4r	.
.	4r	.	4r	.	4r	.	.	.	.	.	.	.	(16ccc\LL	.
.	.	.	.	.	.	.	.	.	.	.	.	.	16bbX\	.
.	.	.	.	.	.	.	.	.	.	.	.	.	16ccc\	.
.	.	.	.	.	.	.	.	.	.	.	.	.	16aa-X\JJ)	.
!	!	!	!	!	!LO:LB:g=original	!	!	!	!	!	!	!	!LO:LB:g=original	!
=37	=37	=37	=37	=37	=37	=37	=37	=37	=37	=37	=37	=37	=37	=37
!	!LO:TX:a:t=1	!	!LO:TX:a:t=1.	!	!	!	!	!	!	!	!	!	!	!
1ryy	1r	.	1r	.	4r	.	4r	.	4r	f	4r	f	4ee-\	.
.	.	.	.	.	8e-\L	.	8.AA-/L	.	8.AA-/L	.	8a-\L	.	4r	.
.	.	.	.	.	8e-\J	.	.	.	.	.	8a-\J	.	.	.
.	.	.	.	.	.	.	16AA-/Jk	.	16AA-/Jk	.	.	.	.	.
.	.	.	.	.	4e-\	.	4AA-/	.	4AA-/	.	4a-\	.	4r	.
.	.	.	.	.	4r	.	4r	.	4r	.	4r	.	(16aa-\LL	<
.	.	.	.	.	.	.	.	.	.	.	.	.	16gg\	.
.	.	.	.	.	.	.	.	.	.	.	.	.	16ff\	[
.	.	.	.	.	.	.	.	.	.	.	.	.	16ee-\JJ)	.
!	!	!	!	!	!	!	!LO:LB:g=original	!	!LO:LB:g=original	!	!LO:LB:g=original	!	!	!
=38	=38	=38	=38	=38	=38	=38	=38	=38	=38	=38	=38	=38	=38	=38
!	!	!	!	!	!	!LO:DY:rj	!	!LO:DY:rj:t=for&colon;	!	!	!	!	!	!LO:DY:t=f&colon;
1ryy	4BB-/	.	4B-/	.	4f\	f	4BB-/	f	4F\	.	4b-\	.	4dd-\	f
.	8.BB-/L	.	8.B-/L	.	8.f\L	.	8.BB-/L	.	8.F\L	.	8.b-\L	.	8.dd-\L	.
.	16BB-/Jk	.	16B-/Jk	.	16f\Jk	.	16BB-/Jk	.	16F\Jk	.	16b-\Jk	.	16dd-\Jk	.
.	4BB-/	.	4B-/	.	4f\	.	4BB-/	.	4F\	.	4b-\	.	4dd-\	.
!	!	!	!	!	!	!	!	!LO:HP:a	!	!LO:HP:a	!	!	!	!LO:HP:a
.	4r	.	4B-/	.	4f\	<[	4BB-/	<[	4F\	<[	4b-\	.	4dd-\	<[
!	!LO:LB:g=original	!	!LO:LB:g=original	!	!	!	!	!	!	!	!	!	!	!
=39	=39	=39	=39	=39	=39	=39	=39	=39	=39	=39	=39	=39	=39	=39
1ryy	4E-/	.	4G/	.	4e-\	.	4E-\	.	4G\	.	4ee-\	.	4ee-\	.
.	4r	.	4r	.	4r	.	4r	.	4r	.	8r	.	8r	.
.	.	.	.	.	.	.	.	.	.	.	16b-'\LL	.	16bb-'\LL	.
.	.	.	.	.	.	.	.	.	.	.	16b-'\JJ	.	16bb-'\JJ	.
.	2r	.	2r	.	2r	.	2r	.	2r	.	8b-'\L	.	8bb-'\L	.
.	.	.	.	.	.	.	.	.	.	.	8b-'\	.	8bb-\|	.
.	.	.	.	.	.	.	.	.	.	.	8g'\	.	8gg\|	.
.	.	.	.	.	.	.	.	.	.	.	8e-'\J	.	8ee-\J|	.
=40	=40	=40	=40	=40	=40	=40	=40	=40	=40	=40	=40	=40	=40	=40
1ryy	4BB-/	.	4B-/	.	4f\	.	4BB-/	.	4F\	.	4d-/	.	4dd-\	.
.	8.BB-/L	.	8.B-/L	.	8.f\L	.	8.BB-/L	.	8.F\L	.	8.b-\L	.	8.dd-\L	.
.	16BB-/Jk	.	16B-/Jk	.	16f\Jk	.	16BB-/Jk	.	16F\Jk	.	16b-\Jk	.	16dd-\Jk	.
.	4BB-/	.	4B-/	.	4f\	.	4D-/	.	4F\	.	4b-\	.	4dd-\	.
!	!	!	!	!	!	!	!	!	!	!	!	!	!	!LO:HP:a
.	4BB-/	.	4B-/	<[	4f\	.	4BB-/	.	4F\	.	4b-\	<[	4dd-\	<[
!	!	!	!	!	!LO:LB:g=original	!	!	!	!	!	!	!	!	!
=41	=41	=41	=41	=41	=41	=41	=41	=41	=41	=41	=41	=41	=41	=41
1ryy	4E-/	.	4G/	.	4e-\	.	4E-^\	.	4E-^\	.	4ee-\	.	4ee-^\	.
.	8r	.	8r	.	8r	.	8r	.	8r	.	8r	.	8r	.
.	16E-/LL	.	16E-/LL	.	16E-/LL	.	16EE-'/LL	.	16E-'\LL	.	16E-'/LL	.	16e-/LL	.
.	16E-/JJ	.	16E-/JJ	.	16E-/JJ	.	16EE-'/JJ	.	16E-'\JJ	.	16E-'/JJ	.	16e-/JJ	.
*	*	*	*	*	*tremolo	*	*tremolo	*	*	*	*tremolo	*	*tremolo	*
!	!	!	!	!	!LO:TX:b:t=....	!	!LO:TX:b:t=....	!	!	!	!LO:TX:b:t=....	!	!LO:TX:b:t=....	!
.	8E-/L	.	8E-'/L	.	8E-/L	.	8EE-/L	.	8E-'\L	.	8E-/L	.	8e-/L	.
.	8E-/	.	8E-'/	.	8E-/	.	8EE-/	.	8E-'\	.	8E-/	.	8e-/	.
.	8E-/	.	8E-'/	.	8E-/	.	8EE-/	.	8E-'\	.	8E-/	.	8e-/	.
.	8E-/J	.	8E-'/J	.	8E-/J	.	8EE-/J	.	8E-'\J	.	8E-/J	.	8e-/J	.
*	*	*	*	*	*Xtremolo	*	*Xtremolo	*	*	*	*Xtremolo	*	*Xtremolo	*
=42	=42	=42	=42	=42	=42	=42	=42	=42	=42	=42	=42	=42	=42	=42
2ryy	2E-/	.	2E-^/	.	2E-^/	.	2EE-^/	.	2E-^\	.	2E-^/	.	2e-^/	.
!	!	!	!LO:TX:b:i:t=Trio da Capo.	!	!LO:TX:b:i:t=Trio da Capo.	!	!LO:TX:b:i:t=Trio da Capo.	!	!LO:TX:b:i:t=Da Capo Trio.	!	!LO:TX:b:i:t=Trio da Capo.	!	!LO:TX:b:i:t=Trio da Capo.	!
8ryy	8ryy	.	8ryy	.	8r	.	8ryy	.	8ryy	.	8ryy	.	8r	.
=:|!	=:|!	=:|!	=:|!	=:|!	=:|!	=:|!	=:|!	=:|!	=:|!	=:|!	=:|!	=:|!	=:|!	=:|!
*-	*-	*-	*-	*-	*-	*-	*-	*-	*-	*-	*-	*-	*-	*-
!!!system-decoration: [(g1)][(g2)]
!!!RDF**kern: > = above
!!!RDF**kern: | = vertical stroke
!!!RDF**dynam: p = "p."
!!!RDF**dynam: f = "f."
!!!RDF**dynam: sf = "sf."
!!!ENC: Andrzej Borzym
!!!END: 2020-07-22
!!!ENC: Marta Lawrence
!!!END: 2022-02-04
!!!YEC: Copyright 2022 Narodowy Instytut Fryderyka Chopina (https://polishscores.org)
!!!YEM: License CC-BY-4.0 (https://creativecommons.org/licenses/by/4.0)
